icons/evolvere-blue-folders-flat-vivid-dark-fallback/actions/64/view-calendar-month.svg

<?xml version="1.0" encoding="UTF-8" standalone="no"?>
<!-- Created with Inkscape (http://www.inkscape.org/) -->

<svg
   xmlns:dc="http://purl.org/dc/elements/1.1/"
   xmlns:cc="http://creativecommons.org/ns#"
   xmlns:rdf="http://www.w3.org/1999/02/22-rdf-syntax-ns#"
   xmlns:svg="http://www.w3.org/2000/svg"
   xmlns="http://www.w3.org/2000/svg"
   xmlns:xlink="http://www.w3.org/1999/xlink"
   xmlns:sodipodi="http://sodipodi.sourceforge.net/DTD/sodipodi-0.dtd"
   xmlns:inkscape="http://www.inkscape.org/namespaces/inkscape"
   width="64"
   height="64"
   id="svg13094"
   version="1.1"
   inkscape:version="0.91+devel r"
   sodipodi:docname="view-calendar-month.svg">
  <sodipodi:namedview
     id="base"
     pagecolor="#ffffff"
     bordercolor="#666666"
     borderopacity="1.0"
     inkscape:pageopacity="0"
     inkscape:pageshadow="2"
     inkscape:zoom="11.313709"
     inkscape:cx="33.202785"
     inkscape:cy="29.576718"
     inkscape:document-units="px"
     inkscape:current-layer="svg13094"
     showgrid="true"
     inkscape:snap-bbox="true"
     inkscape:bbox-paths="true"
     inkscape:bbox-nodes="true"
     inkscape:snap-bbox-edge-midpoints="true"
     inkscape:snap-bbox-midpoints="true"
     inkscape:object-paths="true"
     inkscape:snap-intersection-paths="true"
     inkscape:object-nodes="true"
     inkscape:snap-smooth-nodes="true"
     inkscape:snap-midpoints="true"
     inkscape:snap-object-midpoints="true"
     inkscape:snap-center="true"
     showguides="false"
     inkscape:guide-bbox="true"
     inkscape:window-width="1920"
     inkscape:window-height="1023"
     inkscape:window-x="-10"
     inkscape:window-y="35"
     inkscape:window-maximized="1"
     inkscape:snap-global="true"
     fit-margin-top="0"
     fit-margin-left="0"
     fit-margin-right="0"
     fit-margin-bottom="0"
     showborder="true"
     inkscape:showpageshadow="false"
     inkscape:snap-page="false">
    <inkscape:grid
       type="xygrid"
       id="grid3075"
       empspacing="5"
       visible="true"
       enabled="true"
       snapvisiblegridlinesonly="true"
       originx="1.6362304e-08px"
       originy="18px" />
    <sodipodi:guide
       orientation="0,1"
       position="-11,30"
       id="guide9148" />
    <sodipodi:guide
       orientation="1,0"
       position="32,70"
       id="guide9150" />
  </sodipodi:namedview>
  <defs
     id="defs13096">
    <linearGradient
       inkscape:collect="always"
       xlink:href="#linearGradient3984-8-7-3-8-4"
       id="linearGradient4579-3"
       gradientUnits="userSpaceOnUse"
       gradientTransform="translate(-3117.6016,-1600.2279)"
       x1="3113.439"
       y1="1659.2279"
       x2="3113.439"
       y2="1615.2279" />
    <linearGradient
       x1="31"
       y1="64"
       x2="31"
       y2="2"
       id="linearGradient3984-8-7-3-8-4"
       gradientUnits="userSpaceOnUse"
       gradientTransform="matrix(0.82258065,0,0,0.82258065,6.354839,8.5887097)">
      <stop
         id="stop3099-1-3-0-1-3"
         style="stop-color:#ebebeb;stop-opacity:1"
         offset="0" />
      <stop
         id="stop3875-7-3-2-0-1"
         style="stop-color:#ebebeb;stop-opacity:1;"
         offset="0.5" />
      <stop
         id="stop3873-1-0-8-5-5"
         style="stop-color:#d6d6d6;stop-opacity:1"
         offset="0.50287074" />
      <stop
         id="stop3101-06-4-6-6-8"
         style="stop-color:#d6d6d6;stop-opacity:1"
         offset="1" />
    </linearGradient>
  </defs>
  <metadata
     id="metadata13099">
    <rdf:RDF>
      <cc:Work
         rdf:about="">
        <dc:format>image/svg+xml</dc:format>
        <dc:type
           rdf:resource="http://purl.org/dc/dcmitype/StillImage" />
        <dc:title></dc:title>
      </cc:Work>
    </rdf:RDF>
  </metadata>
  <path
     style="color:#000000;display:inline;overflow:visible;visibility:visible;fill:#d13c2f;fill-opacity:1;fill-rule:nonzero;stroke:none;stroke-width:2.28571415;marker:none;enable-background:accumulate"
     d="M 1.6362304e-8,15 64,15 64,61 61,64 3,64 1.6362304e-8,61 Z"
     id="rect4519"
     inkscape:connector-curvature="0"
     sodipodi:nodetypes="ccccccc" />
  <g
     id="g3043"
     inkscape:export-filename="folder.png"
     inkscape:export-xdpi="90"
     inkscape:export-ydpi="90"
     transform="translate(-0.62500009,0.082283)" />
  <g
     id="scalable"
     transform="matrix(1.0385892,0,0,1.0385892,1214.7222,1878.8121)"
     inkscape:label="#g3701"
     style="fill:#ffffff" />
  <path
     sodipodi:nodetypes="ccccccc"
     id="path4575"
     d="m 6,15 0,44 24,0 33,2 -3,-7 0,-39 z"
     style="color:#000000;display:inline;overflow:visible;visibility:visible;opacity:1;fill:#550000;fill-opacity:0.21466908;fill-rule:nonzero;stroke:none;stroke-width:1;stroke-linecap:butt;stroke-linejoin:miter;stroke-miterlimit:4;stroke-dasharray:none;stroke-dashoffset:0;stroke-opacity:1;marker:none;enable-background:accumulate"
     inkscape:connector-curvature="0" />
  <path
     inkscape:connector-curvature="0"
     style="color:#000000;display:inline;overflow:visible;visibility:visible;opacity:1;fill:#bcbcbc;fill-opacity:1;fill-rule:nonzero;stroke:none;stroke-width:1;stroke-linecap:butt;stroke-linejoin:miter;stroke-miterlimit:4;stroke-dasharray:none;stroke-dashoffset:0;stroke-opacity:1;marker:none;enable-background:accumulate"
     d="m 5,14 0,44 54,0 0,-44 z"
     id="path4590"
     sodipodi:nodetypes="ccccc" />
  <path
     inkscape:connector-curvature="0"
     style="color:#000000;display:inline;overflow:visible;visibility:visible;fill:url(#linearGradient4579-3);fill-opacity:1;fill-rule:nonzero;stroke:none;stroke-width:1;marker:none;enable-background:accumulate"
     d="m 5,15 0,44 25,0 29,-6 0,-38 z"
     id="path4577"
     sodipodi:nodetypes="cccccc" />
  <path
     sodipodi:nodetypes="cccccc"
     inkscape:connector-curvature="0"
     style="color:#000000;display:inline;overflow:visible;visibility:visible;fill:#d13c2f;fill-opacity:1;fill-rule:nonzero;stroke:none;stroke-width:2.28571415;marker:none;enable-background:accumulate"
     d="m 0,4 c 0,18.153961 0,43.296552 0,11 l 64,0 c 0,32.296552 0,7.153961 0,-11 L 32,4 Z"
     id="path3786" />
  <path
     id="path6538"
     d="m 1.6362304e-8,18 c 0,-4.95108 0,-11.8081509 0,-3 L 64,15 c 0,-8.8081509 0,-1.95108 0,3 l -32,0 z"
     style="color:#000000;display:inline;overflow:visible;visibility:visible;opacity:1;fill:#550000;fill-opacity:0.21466908;fill-rule:nonzero;stroke:none;stroke-width:1;stroke-linecap:butt;stroke-linejoin:miter;stroke-miterlimit:4;stroke-dasharray:none;stroke-dashoffset:0;stroke-opacity:1;marker:none;enable-background:accumulate"
     inkscape:connector-curvature="0"
     sodipodi:nodetypes="cccccc" />
  <path
     style="color:#000000;display:inline;overflow:visible;visibility:visible;fill:#ff6755;fill-opacity:1;fill-rule:nonzero;stroke:none;marker:none;enable-background:accumulate"
     d="M 2,1 0,2 0,4 19.5625,4 39.125,4 64,4 64,2 62,1 39.125,1 19.5625,1 Z"
     id="path6688"
     inkscape:connector-curvature="0"
     sodipodi:nodetypes="ccccccccccc" />
  <path
     style="fill:#ff9285;fill-opacity:1;fill-rule:nonzero"
     d="M 0,3 0,6 2,4 Z"
     id="path4298"
     inkscape:connector-curvature="0"
     sodipodi:nodetypes="cccc" />
  <g
     id="g3870"
     transform="translate(4)">
    <rect
       y="0"
       x="9"
       height="11"
       width="4"
       id="rect3872"
       style="color:#000000;display:inline;overflow:visible;visibility:visible;fill:#dee6ee;fill-opacity:1;fill-rule:nonzero;stroke:none;stroke-width:2.28571415;marker:none;enable-background:accumulate" />
    <path
       style="color:#000000;display:inline;overflow:visible;visibility:visible;opacity:1;fill:#550000;fill-opacity:0.21466908;fill-rule:nonzero;stroke:none;stroke-width:1;stroke-linecap:butt;stroke-linejoin:miter;stroke-miterlimit:4;stroke-dasharray:none;stroke-dashoffset:0;stroke-opacity:1;marker:none;enable-background:accumulate"
       d="m 13,1 0,3.78125 C 13.447171,5.5060967 13.71875,6.3033913 13.71875,7 13.71875,7.6956056 13.446032,8.1672498 13,8.375 L 13,11 9.21875,11 c 0.6048231,0.520892 1.246914,0.994332 1.90625,1.375 C 14.926914,14.570036 18,13.270664 18,9.46875 18,7.7620839 17.370811,5.8533042 16.335855,4.0670776 15.435734,2.91762 14.316763,1.8994722 13,1 Z"
       id="path3878"
       inkscape:connector-curvature="0"
       sodipodi:nodetypes="ccscccsscc" />
  </g>
  <g
     id="g3864"
     transform="translate(38)">
    <rect
       style="color:#000000;display:inline;overflow:visible;visibility:visible;fill:#dee6ee;fill-opacity:1;fill-rule:nonzero;stroke:none;stroke-width:2.28571415;marker:none;enable-background:accumulate"
       id="rect3837"
       width="4"
       height="11"
       x="9"
       y="0" />
    <path
       sodipodi:nodetypes="ccscccsscc"
       inkscape:connector-curvature="0"
       id="path3855"
       d="m 13,1 0,3.78125 C 13.447171,5.5060967 13.71875,6.3033913 13.71875,7 13.71875,7.6956056 13.446032,8.1672498 13,8.375 L 13,11 9.21875,11 c 0.6048231,0.520892 1.246914,0.994332 1.90625,1.375 C 14.926914,14.570036 18,13.270664 18,9.46875 18,7.7620839 17.370811,5.8533042 16.335855,4.0670776 15.435734,2.91762 14.316763,1.8994722 13,1 Z"
       style="color:#000000;display:inline;overflow:visible;visibility:visible;opacity:1;fill:#550000;fill-opacity:0.21466908;fill-rule:nonzero;stroke:none;stroke-width:1;stroke-linecap:butt;stroke-linejoin:miter;stroke-miterlimit:4;stroke-dasharray:none;stroke-dashoffset:0;stroke-opacity:1;marker:none;enable-background:accumulate" />
  </g>
  <path
     d="M 64,6 62,4 64,3 Z"
     id="path3028"
     style="fill:#e75747;fill-opacity:1"
     inkscape:connector-curvature="0"
     sodipodi:nodetypes="cccc" />
  <g
     id="g3959"
     transform="translate(3,-1)">
    <rect
       y="22"
       x="9"
       height="4"
       width="4"
       id="rect4227"
       style="color:#000000;display:inline;overflow:visible;visibility:visible;fill:#000000;fill-opacity:0.19588551;fill-rule:nonzero;stroke:none;stroke-width:2.28571415;marker:none;enable-background:accumulate"
       rx="1"
       ry="1" />
  </g>
  <use
     x="0"
     y="0"
     xlink:href="#g3959"
     id="use3973"
     transform="translate(12)"
     width="64"
     height="64" />
  <path
     style="opacity:1;color:#000000;fill:#47d026;fill-opacity:0.50268334;stroke:none;stroke-width:1.99999988;marker:none;visibility:visible;display:inline;overflow:visible;enable-background:accumulate"
     d="m 10,28 23,0 1,-1 0,-7 1,-1 19,0 1,1 0,24 -1,1 -22,0 -1,1 0,7 -1,1 -20,0 -1,-1 0,-24 z"
     id="rect3098"
     inkscape:connector-curvature="0"
     sodipodi:nodetypes="ccccccccccccccccc" />
  <use
     height="64"
     width="64"
     transform="translate(12,9)"
     id="use3991"
     xlink:href="#g3959"
     y="0"
     x="0" />
  <use
     x="0"
     y="0"
     xlink:href="#g3959"
     id="use3979"
     transform="translate(0,9)"
     width="64"
     height="64" />
  <use
     height="64"
     width="64"
     transform="translate(12,18)"
     id="use3993"
     xlink:href="#g3959"
     y="0"
     x="0" />
  <use
     x="0"
     y="0"
     xlink:href="#g3959"
     id="use3985"
     transform="translate(0,18)"
     width="64"
     height="64" />
  <use
     x="0"
     y="0"
     xlink:href="#g3959"
     id="use3995"
     transform="translate(12,27)"
     width="64"
     height="64" />
  <use
     height="64"
     width="64"
     transform="translate(0,27)"
     id="use3969"
     xlink:href="#g3959"
     y="0"
     x="0" />
  <use
     x="0"
     y="0"
     xlink:href="#g3959"
     id="use3975"
     transform="translate(24)"
     width="64"
     height="64" />
  <use
     x="0"
     y="0"
     xlink:href="#g3959"
     id="use3981"
     transform="translate(24,9)"
     width="64"
     height="64" />
  <use
     x="0"
     y="0"
     xlink:href="#g3959"
     id="use3987"
     transform="translate(24,18)"
     width="64"
     height="64" />
  <use
     height="64"
     width="64"
     transform="translate(24,27)"
     id="use3971"
     xlink:href="#g3959"
     y="0"
     x="0" />
  <use
     height="64"
     width="64"
     transform="translate(36)"
     id="use3977"
     xlink:href="#g3959"
     y="0"
     x="0" />
  <use
     height="64"
     width="64"
     transform="translate(36,9)"
     id="use3983"
     xlink:href="#g3959"
     y="0"
     x="0" />
  <use
     height="64"
     width="64"
     transform="translate(36,18)"
     id="use3989"
     xlink:href="#g3959"
     y="0"
     x="0" />
  <use
     x="0"
     y="0"
     xlink:href="#g3959"
     id="use3962"
     transform="translate(36,27)"
     width="64"
     height="64" />
  <path
     style="color:#000000;display:inline;overflow:visible;visibility:visible;fill:#a6a6a6;fill-opacity:1;fill-rule:nonzero;stroke:none;stroke-width:1;marker:none;enable-background:accumulate"
     d="M 59,53 30,59 58,52 Z"
     id="path3014-1"
     inkscape:connector-curvature="0"
     sodipodi:nodetypes="cccc" />
</svg>

<svg xmlns="http://www.w3.org/2000/svg" xmlns:xlink="http://www.w3.org/1999/xlink" viewBox="0 0 64 64"><defs><linearGradient id="1" gradientUnits="userSpaceOnUse" y1="59" x2="0" y2="15"><stop stop-color="#ebebeb"/><stop offset=".5" stop-color="#ebebeb"/><stop offset=".503" stop-color="#d6d6d6"/><stop offset="1" stop-color="#d6d6d6"/></linearGradient></defs><g color="#000"><path d="m0 15h64v46l-3 3h-58l-3-3" fill="#d13c2f"/><path d="m6 15v44h24l33 2-3-7v-39z" fill-opacity=".215" fill="#500"/><path d="m5 14v44h54v-44z" fill="#bcbcbc"/><path d="m5 15v44h25l29-6v-38z" fill="url(#1)"/><path d="m0 4c0 18.15 0 43.3 0 11h64c0 32.3 0 7.154 0-11h-32" fill="#d13c2f"/><path d="m0 18c0-4.951 0-11.808 0-3h64c0-8.808 0-1.951 0 3h-32z" fill-opacity=".215" fill="#500"/><path d="m2 1l-2 1v2h19.563 19.563 24.875v-2l-2-1h-22.875-19.563" fill="#ff6755"/></g><path d="m0 3v3l2-2" fill="#ff9285"/><g transform="translate(4)"><path fill="#dee6ee" color="#000" d="m9 0h4v11h-4z" id="2"/><path d="m13 1v3.781c.447.725.719 1.522.719 2.219 0 .696-.273 1.167-.719 1.375v2.625h-3.781c.605.521 1.247.994 1.906 1.375 3.802 2.195 6.875.896 6.875-2.906 0-1.707-.629-3.615-1.664-5.402-.9-1.149-2.02-2.168-3.336-3.067" fill-opacity=".215" color="#000" fill="#500" id="3"/></g><g transform="translate(38)"><use xlink:href="#2"/><use xlink:href="#3"/></g><path d="m64 6l-2-2 2-1" fill="#e75747"/><g id="0" transform="translate(3-1)"><rect y="22" x="9" height="4" width="4" rx="1" fill-opacity=".196" color="#000"/></g><use xlink:href="#0" transform="translate(12)" width="64" height="64"/><path d="m10 28h23l1-1v-7l1-1h19l1 1v24l-1 1h-22l-1 1v7l-1 1h-20l-1-1v-24z" fill="#47d026" fill-opacity=".503" color="#000"/><use height="64" width="64" transform="translate(12 9)" xlink:href="#0"/><use xlink:href="#0" transform="translate(0 9)" width="64" height="64"/><use height="64" width="64" transform="translate(12 18)" xlink:href="#0"/><use xlink:href="#0" transform="translate(0 18)" width="64" height="64"/><use xlink:href="#0" transform="translate(12 27)" width="64" height="64"/><use height="64" width="64" transform="translate(0 27)" xlink:href="#0"/><use xlink:href="#0" transform="translate(24)" width="64" height="64"/><use xlink:href="#0" transform="translate(24 9)" width="64" height="64"/><use xlink:href="#0" transform="translate(24 18)" width="64" height="64"/><use height="64" width="64" transform="translate(24 27)" xlink:href="#0"/><use height="64" width="64" transform="translate(36)" xlink:href="#0"/><use height="64" width="64" transform="translate(36 9)" xlink:href="#0"/><use height="64" width="64" transform="translate(36 18)" xlink:href="#0"/><use xlink:href="#0" transform="translate(36 27)" width="64" height="64"/><path d="m59 53l-29 6 28-7" fill="#a6a6a6" color="#000"/></svg>
